X: 20761
T: The Pot stick
%R: jig
B: James Oswald "The Caledonian Pocket Companion" v.2 p.76 #1
Z: 2019 John Chambers <jc:trillian.mit.edu>
M: 6/8
L: 1/8
K: Em
|:"_Lively"\
(E2F) (G2A) | BAG TF3 | (E2F)(G2A) | B2c BGE |\
(E2F) (G2A) | BAG TF3 | (D2E) (F2G) | A2d AFD :|
|:\
(d2B) (c2A) | B2G F3 | (E2F) (G2A) | B2c BGE |\
(d2B) (c2A) | B2G TF3 | (D2E) (F2G) | A2d AFD :|


